X:541
T:Wedding dance
C:anon.
O:Hungary
Z:Transcribed by Frank Nordberg - http://www.musicaviva.com
F:http://abc.musicaviva.com/tunes/hungary/wedding-dance-01.abc
M:4/4
L:1/8
Q:304
K:Ddor
dddd defd|ec cG cded|\
M:2/4
L:1/8
A2B^c|d2G2|BB2B|AG^FE|^F2A2|DD2D:|
W:
W:
W:  From Musica Viva - http://www.musicaviva.com
W:  the Internet center for free sheet music downloads.

